X: 25569
T: Mariposa
R: reel
M: 4/4
K: Gmajor
|:gaa2 gfed|fede B2BA|B2dB ABde|f2e2 e2fg
gaa2 gfed|fede B2BA|B2dB ABAF|E2D2|1 D2fg:|2 D4||
|:B2dB ABde|f2ed B2BA|B2dB ABde|f2e2 e4
[1 B2dB ABde|f2ed B2BA|B2dB ABAF|E2D2 D4:|
[2 gaa2 gfed|fede B2BA|B2dB ABAF|E2D2 D4||

